public/images/prizes/most-creative.svg

<svg fill="none" height="156" viewBox="0 0 136 156" width="136" xmlns="http://www.w3.org/2000/svg"><circle cx="68" cy="78" fill="#f77" r="51"/><path d="m43.5003 94.2102c22.6897 0 41.0834-18.3937 41.0834-41.0834s-18.3937-41.0833-41.0834-41.0833-41.08331 18.3936-41.08331 41.0833 18.39361 41.0834 41.08331 41.0834z" fill="#ffcb4c"/><g fill="#65471b"><path d="m35.099 62.837c-.3504-.2803-.6235-.6622-.754-1.1213-.3238-1.1117.3142-2.2185 1.4258-2.4675 10.9427-2.4674 18.3111 3.294 18.6229 3.5405.928.7395 1.1092 2.042.4181 2.912-.6912.8652-2.001.9691-2.9266.2345-.2659-.203-6.0973-4.6473-14.9399-2.6535-.6621.1474-1.3388-.0387-1.8463-.4447z"/><path d="m31.7048 45.4225c2.8362 0 5.1354-2.8737 5.1354-6.4187 0-3.5449-2.2992-6.4186-5.1354-6.4186-2.8363 0-5.1355 2.8737-5.1355 6.4186 0 3.545 2.2992 6.4187 5.1355 6.4187z"/><path d="m58.9059 47.989c2.8362 0 5.1354-2.8737 5.1354-6.4187 0-3.5449-2.2992-6.4186-5.1354-6.4186s-5.1354 2.8737-5.1354 6.4186c0 3.545 2.2992 6.4187 5.1354 6.4187z"/></g><path d="m41.75 96.9434s3.0571-.9932 3.4534-3.2673c.4181-2.349-1.508-2.8203-1.508-2.8203s2.5158-.5026 2.8324-3.3253c.2972-2.6608-2.0808-3.2939-2.0808-3.2939s2.3442-.9667 2.4553-3.7193c.0919-2.3176-2.4045-3.451-2.4045-3.451s12.1751-2.9507 13.427-3.2407c1.247-.29 3.19-1.4863 2.5834-4.0939-.6018-2.61-2.9097-2.7018-4.1011-2.4239-1.1938.2779-16.298 3.7845-21.5083 4.9977l-3.4776.8072c-1.305.3069-1.8971-.2659-.9764-1.2374 1.2277-1.2953 2.0131-2.7284 2.2862-5.1064.2876-2.5012-.5607-5.5897-1.0464-6.7884-.9038-2.2258-2.4288-3.9851-4.1905-4.5893-2.7478-.9425-4.7004.7758-3.7265 3.7725 1.4597 4.4805.5027 8.1562-2.0131 10.3747-5.9184 5.2128-8.671 8.9296-6.8392 16.8514 2.001 8.6396 10.5778 14.2002 19.2174 12.1994z" fill="#f19020"/><path d="m22.4649 27.3482c-.3964-.2126-.7323-.5413-.9449-.9642-.522-1.0343-.0967-2.2403.9497-2.6873 10.3095-4.425 18.6059-.104 18.9539.0821 1.0464.5583 1.4694 1.8053.9449 2.7889-.522.9787-1.7883 1.3195-2.8347.7685-.2973-.1523-6.844-3.4607-15.1718.1135-.6211.2635-1.322.2055-1.8971-.1015zm29.3262 9.0625c-.377-.2368-.6911-.5872-.8748-1.0246-.4519-1.0682.0556-2.2403 1.131-2.6197 10.5874-3.712 18.5721 1.16 18.9056 1.3703 1.0029.6283 1.3412 1.9019.754 2.8468-.5849.9425-1.8754 1.1962-2.8783.5752-.29-.174-6.5902-3.9175-15.1452-.916-.6429.22-1.3364.1112-1.8923-.232z" fill="#65471b"/></svg>

<svg width="136" height="156" viewBox="0 0 136 156" fill="none" xmlns="http://www.w3.org/2000/svg">
<circle cx="68" cy="78" r="51" fill="#FF7777"/>
<path d="M43.5003 94.2102C66.19 94.2102 84.5837 75.8165 84.5837 53.1268C84.5837 30.4371 66.19 12.0435 43.5003 12.0435C20.8106 12.0435 2.41699 30.4371 2.41699 53.1268C2.41699 75.8165 20.8106 94.2102 43.5003 94.2102Z" fill="#FFCB4C"/>
<path d="M35.099 62.837C34.7486 62.5567 34.4755 62.1748 34.345 61.7157C34.0212 60.604 34.6592 59.4972 35.7708 59.2482C46.7135 56.7808 54.0819 62.5422 54.3937 62.7887C55.3217 63.5282 55.5029 64.8307 54.8118 65.7007C54.1206 66.5659 52.8108 66.6698 51.8852 65.9352C51.6193 65.7322 45.7879 61.2879 36.9453 63.2817C36.2832 63.4291 35.6065 63.243 35.099 62.837V62.837Z" fill="#65471B"/>
<path d="M31.7048 45.4225C34.541 45.4225 36.8402 42.5488 36.8402 39.0038C36.8402 35.4589 34.541 32.5852 31.7048 32.5852C28.8685 32.5852 26.5693 35.4589 26.5693 39.0038C26.5693 42.5488 28.8685 45.4225 31.7048 45.4225Z" fill="#65471B"/>
<path d="M58.9059 47.989C61.7421 47.989 64.0413 45.1153 64.0413 41.5703C64.0413 38.0254 61.7421 35.1517 58.9059 35.1517C56.0697 35.1517 53.7705 38.0254 53.7705 41.5703C53.7705 45.1153 56.0697 47.989 58.9059 47.989Z" fill="#65471B"/>
<path d="M41.75 96.9434C41.75 96.9434 44.8071 95.9502 45.2034 93.6761C45.6215 91.3271 43.6954 90.8558 43.6954 90.8558C43.6954 90.8558 46.2112 90.3532 46.5278 87.5305C46.825 84.8697 44.447 84.2366 44.447 84.2366C44.447 84.2366 46.7912 83.2699 46.9023 80.5173C46.9942 78.1997 44.4978 77.0663 44.4978 77.0663C44.4978 77.0663 56.6729 74.1156 57.9248 73.8256C59.1718 73.5356 61.1148 72.3393 60.5082 69.7317C59.9064 67.1217 57.5985 67.0299 56.4071 67.3078C55.2133 67.5857 40.1091 71.0923 34.8988 72.3055L31.4212 73.1127C30.1162 73.4196 29.5241 72.8468 30.4448 71.8753C31.6725 70.58 32.4579 69.1469 32.731 66.7689C33.0186 64.2677 32.1703 61.1792 31.6846 59.9805C30.7808 57.7547 29.2558 55.9954 27.4941 55.3912C24.7463 54.4487 22.7937 56.167 23.7676 59.1637C25.2273 63.6442 24.2703 67.3199 21.7545 69.5384C15.8361 74.7512 13.0835 78.468 14.9153 86.3898C16.9163 95.0294 25.4931 100.59 34.1327 98.5892L41.75 96.9434Z" fill="#F19020"/>
<path d="M22.4649 27.3482C22.0685 27.1356 21.7326 26.8069 21.52 26.384C20.998 25.3497 21.4233 24.1437 22.4697 23.6967C32.7792 19.2717 41.0756 23.5927 41.4236 23.7788C42.47 24.3371 42.893 25.5841 42.3685 26.5677C41.8465 27.5464 40.5802 27.8872 39.5338 27.3362C39.2365 27.1839 32.6898 23.8755 24.362 27.4497C23.7409 27.7132 23.04 27.6552 22.4649 27.3482V27.3482ZM51.7911 36.4107C51.4141 36.1739 51.1 35.8235 50.9163 35.3861C50.4644 34.3179 50.9719 33.1458 52.0473 32.7664C62.6347 29.0544 70.6194 33.9264 70.9529 34.1367C71.9558 34.765 72.2941 36.0386 71.7069 36.9835C71.122 37.926 69.8315 38.1797 68.8286 37.5587C68.5386 37.3847 62.2384 33.6412 53.6834 36.6427C53.0405 36.8627 52.347 36.7539 51.7911 36.4107V36.4107Z" fill="#65471B"/>
</svg>
